X: 12
T: Ding dong to the Camp
%R: reel
B: "Twenty Four Country Dances for the Year 1781", Thomas Skillern, ed. p.6 #2
F: http://www.vwml.org/browse/browse-collections-dance-tune-books/browse-skillerns1781#
Z: 2014 John Chambers <jc:trillian.mit.edu>
M: 2/4
L: 1/16
K: G
|:\
d2Bd c2Ac | B2GB AFED |\
GBAc Bdef | gdcB B2A2 ::\
d2Bd cDD2 | c2Ac BGG2 |\
GBAc Bdef | gcBA G4 :|
%%begintext align
%%   First Cu. Swing Right
%% Hands & Cast off .| 2d Cu.
%% do the same :| Cross over :|.
%% & Right & Left :|:
%%endtext

%%sep 1 1 500
%%sep 1 1 500
